!!!COM: Peter Cornelius
!!!CNT: Deutsch
!!!TXO: Deutsch
!!!OTL: ode
!!!LYR: Platen
!!!OPR: 6 Lieder
!!!OPS: Op. 5
!!!ONM: No. 4
!!!ENC: Ben Fuhrman
!!!YOR: CD Sheet Music, Mid-Romantic German Lieder: The Ultimate Collection.
!!!YOR: CD Sheet Music, LLC 2001
!!!ODT: 1861
!!NB: Only vocal melody encoded.
!!NB: First instance of melodic material only encoded.
!!created: 2/3/10 1:57PM
!!proofed and posted: 2/3/10 2:00PM
**kern	**silbe
*clef G2	*
*k[b-e-]	*
*M6/8	*
*MM[Ma2ssig schnell]	*
=7	=7
4r	.
8r	.
{8g	{Lan
8g	-ge
8g	be-
=8	=8
8.g	-gehr-
16a	-ten
8a	wir
8a	ru-
8a	-hig
8a	al-
=9	=9
8.a	-lein
16b	zu
8b}	sein,}
4r	.
8r	.
=10	=10
4r	.
8r	.
{8dd-	{lan-
8dd-	-ge
8dd-	be-
=11	=11
8.dd-	-gehr-
16cc	-ten
8cc}	wir's,}
4r	.
8r	.
=12	=12
4r	.
8r	.
{8a-	{ha2t-
8a-	-ten
8g	er-
=13	=13
8.cc	-reicht
16f#	es
8f#}	heut,}
4r	.
8r	.
=14	=14
4r	.
8r	.
{8fn	{a-
8fn	-ber
8fn	es
=15	=15
8.dd	teilt
16cc	mit
8b-	uns
8b-	die-
8cc	-se
8b-	Ge-
=16	=16
8.b-	-nos-
16a-	-sen-
8g}	-schaft}
4r	.
8r	.
=17	=17
{[4.ee-	{Wein
4ee-]	|
8dd	und
=18	=18
4.ff	Ju-
4a}	-gend,}
8r	.
=19	=19
4r	.
{8g	{ein
(8b	feu-
8a)	|
8g	-rig
=20	=20
2.dd}	Paar.}
!! Rest to measure 25
=25	=25
{4g-	{Zar-
8a-	-te
8f	Me-
8en	-lan-
8f	-cho-
=26	=26
4.b-	-lie
8e-	ma2s-
8g-	-sigt
8b-	den
=27	=27
4ee-	Lie-
8dd-	-bes-
4.b-}	-brand,}
=28	=28
4r	.
8r	.
{8f#	{zu2ch-
8f#	-ti-
8f#	-ger
=29	=29
8.dd	Ro-
16cc#	-se
8bn	gleich
8g	mit-
8a	-ten
8g	im
=30	=30
8.f#	Nel-
16bn	-ken
[8bn	-strauss,
4bn]}	|}
8r	.
=31	=31
4r	.
8r	.
8r	.
{[4dd	{La2-
=32	=32
8dd]	|
8cc	-chein
8a	ver-
4f#	-ra2t
8a	das
=33	=33
4.cc	Mass
8cc	in-
8bn	-ni-
8a	-ger
=34	=34
4bn	Za2rt-
8g	-lich
4d}	-keit,}
8r	.
=35	=35
{4een	{Ku2s-
8dd	-se
8cc	fal-
8bn	-len
8a	wie
=36	=36
[4.b-	Ho-
4b-]	|
8a-	-nig-
=37	=37
4g}	-tau.}
8r	.
4r	.
8r	.
=38	=38
2.r	.
=39	=39
4r	.
8r	.
{8.g	{Bren-
16g	-nen-
8g	-de
=40	=40
8.g	Seuf-
16a	-zer,
8a	o
8a	sa-
8a	-ge
8a	wa-
=41	=41
4b-}	-rum?}
8r	.
4r	.
{8b-	{wa
=42	=42
4.dd-	-rum
8dd-	bren-
8cc	-nen-
8b-	-de
=43	=43
4dd-	Bli-
8cc}	cke?}
4r	.
8r	.
=44	=44
4r	.
8r	.
4r	.
{8g-	{Sind's
=45	=45
8f	Bo-
8a	-ten
8gn	viel-
8f	-leicht
8a	|
8cc	des
=46	=46
[2.ee-	Glu2cks?
=47	=47
8ee-]}	|}
8r	.
8r	.
4r	.
8r	.
=48	=48
4r	.
8r	.
{8d	{A-
8c#	-ber
8d	-du
=49	=49
*k[f#]	*
[4.b	schweigst?
8b]	|
8r	.
8b	o
=50	=50
[4.cc#	komm!
8cc#]}	|}
8r	.
8r	.
=51	=51
{8.f#	{scheu-
16f#	-che
8f#	den
(8a#	drei-
8g)	|
8f#	sten
=52	=52
(4.f#	Mond,
8b)	|
8r	.
8r	.
=53	=53
[4.b	schliess'
4b]	|
8cc	den
=54	=54
4.dd	La-
4f#}	-den,}
8r	.
=55	=55
4r	.
{8g	{ge-
(8g	-lieb
8f#)	|
8e	-tes
=56	=56
(4.b	Herz!
8a)}	|}
8r	.
8r	.
=57	=57
4r	.
8r	.
4r	.
{8b	{o
=58	=58
[4.cc#	komm!
8cc#]}	|}
8r	.
8r	.
=59	=59
4r	.
8r	.
4r	.
{8f#	{o
=60	=60
2.dd	komm!
=61	=61
[4.dd#	schliess'
4dd#]	|
8ee	den
=62	=62
4.ee	La-
8ddn}	-den,}
8r	.
{8g	{ge
=63	=63
[4.b	-lieb-
4b]	|
8a	-tes
=64	=64
[4.g	Herz!
8g]}	|}
8r	.
8r	.
==	==
*-	*-
